icons/communication/call-down-24.svg

<svg width="24" height="24" viewBox="0 0 24 24" fill="none" xmlns="http://www.w3.org/2000/svg">
<g clip-path="url(#clip0_262_631)">
<path fill-rule="evenodd" clip-rule="evenodd" d="M21.0478 18C22.6784 18 24 16.6562 24 14.9983L24 13.9619C24 12.52 23.2722 11.1978 22.0973 10.3825C19.5291 8.60146 15.9559 7.5 12 7.5C8.04412 7.50001 4.4707 8.60159 1.90249 10.3826C0.72755 11.198 1.33393e-06 12.52 1.33393e-06 13.962L0 14.9967C6.99482e-05 16.6546 1.32166 17.9984 2.95216 17.9984L4.78583 17.9985C6.1112 17.9984 7.18655 16.906 7.18536 15.5579L7.18459 14.1223C7.18459 14.0977 7.192 14.0756 7.20228 14.0596C7.21186 14.0449 7.22116 14.0391 7.22739 14.0367C8.63745 13.4814 10.2605 13.1586 12 13.1586C13.7392 13.1585 15.3616 13.4822 16.7709 14.0382C16.7771 14.0406 16.7865 14.0463 16.7962 14.0612C16.8064 14.0771 16.8138 14.0995 16.8138 14.1241L16.8131 15.425C16.8131 16.8693 17.8498 18 19.2126 18H21.0478ZM21.0478 16.4915C21.859 16.4915 22.5164 15.8231 22.5164 14.9983V13.9619C22.5164 13.0485 22.056 12.1803 21.2614 11.6287C18.9728 10.0417 15.7006 9.00848 12 9.00844C8.29932 9.00847 5.02718 10.0417 2.73858 11.6287C1.94396 12.1802 1.48357 13.0484 1.48357 13.9619V14.9967C1.48357 15.8215 2.14097 16.4899 2.95216 16.49L4.78583 16.4899C5.29252 16.49 5.70221 16.0724 5.70179 15.5591L5.70102 14.1229C5.70102 13.49 6.06833 12.8756 6.69132 12.63C8.2763 12.006 10.0816 11.6501 12 11.65C13.9186 11.6501 15.7231 12.0068 17.3073 12.6317C17.9302 12.8773 18.2974 13.4918 18.2974 14.1245L18.2966 15.425C18.2966 16.1138 18.7434 16.4915 19.2126 16.4915H21.0478Z" fill="black"/>
</g>
<defs>
<clipPath id="clip0_262_631">
<rect width="24" height="24" fill="white"/>
</clipPath>
</defs>
</svg>

<svg xmlns="http://www.w3.org/2000/svg" width="24" height="24"><path fill-rule="evenodd" d="M21.048 18C22.678 18 24 16.656 24 14.998v-1.036c0-1.442-.728-2.764-1.903-3.58C19.53 8.603 15.956 7.5 12 7.5c-3.956 0-7.53 1.102-10.098 2.883C.728 11.198 0 12.52 0 13.962v1.035c0 1.658 1.322 3.001 2.952 3.001h1.834c1.325 0 2.4-1.092 2.4-2.44l-.001-1.436c0-.024.007-.046.017-.062a.055.055 0 01.025-.023c1.41-.556 3.034-.878 4.773-.878 1.74 0 3.362.323 4.77.88a.055.055 0 01.026.022c.01.016.018.039.018.063v1.301c0 1.444 1.036 2.575 2.399 2.575h1.835zm0-1.509a1.48 1.48 0 001.468-1.493v-1.036c0-.913-.46-1.782-1.255-2.333-2.288-1.587-5.56-2.62-9.261-2.62-3.7 0-6.973 1.033-9.261 2.62-.795.551-1.255 1.42-1.255 2.333v1.035a1.48 1.48 0 001.468 1.493h1.834a.923.923 0 00.916-.93L5.7 14.122c0-.633.367-1.247.99-1.493 1.585-.624 3.39-.98 5.309-.98s3.723.357 5.307.982c.623.245.99.86.99 1.492v1.301c0 .689.446 1.066.916 1.066h1.835z"/></svg>
